**kern	**kern
*part1	*part1
*staff2	*staff1
*I"Piano	*
*clefF4	*clefG2
*k[f#c#]	*k[f#c#]
=1	=1
8AAL	8aL 8cc# 8gg
8C#	8ee
8EJ	8cc#J
=	=
8AL	8aL
8E	8e
8AJ	8aJ
=	=
8c#L	8cc#L
8A	8a
8c#J	8cc#J
=	=
4e	4ee
8f#	8ff#
=	=
8gL	8ggL
8e	8ee
8c#J	8cc#J
=	=
8dL	8ddL
8B	8b
8G#XJ	8g#XJ
=	=
4A	8aL
.	8b
8AA	8gnJ 8cc#
=	=
4D 4d	4f# 4dd
==	==
*-	*-
!!!system-decoration: {(s1,s2)}
